src/telerik-icons/solid/table-row-delete.svg

<?xml version="1.0" encoding="utf-8"?>
<svg xmlns="http://www.w3.org/2000/svg" width="512" height="512" viewBox="0 0 512 512">
  <path d="M224 192H0v128h224V192zm288 0h-64v128h64V192zm-32 160v128H64V352h416zm-288 96v-64H96v64h96zm128 0v-64h-96v64h96zm128 0v-64h-96v64h96zm32-416v128H64V32h416zm-288 96V64H96v64h96zm128 0V64h-96v64h96zm128 0V64h-96v64h96zm-89.373 128L416 313.373 393.373 336 336 278.627 278.627 336 256 313.373 313.373 256 256 198.627 278.627 176 336 233.373 393.373 176 416 198.627 358.627 256z"/>
</svg>

<?xml version="1.0" encoding="utf-8"?>
<!-- Generator: Adobe Illustrator 19.2.1, SVG Export Plug-In . SVG Version: 6.00 Build 0)  -->
<svg xmlns="http://www.w3.org/2000/svg" width="512" height="512" viewBox="0 0 512 512">
<path d="M224,192H0v128h224V192z M512,192h-64v128h64V192z M480,352v128H64V352H480z M192,448v-64H96v64H192z M320,448v-64h-96v64
	H320z M448,448v-64h-96v64H448z M480,32v128H64V32H480z M192,128V64H96v64H192z M320,128V64h-96v64H320z M448,128V64h-96v64H448z
	 M358.627,256L416,313.373L393.373,336L336,278.627L278.627,336L256,313.373L313.373,256L256,198.627L278.627,176L336,233.373
	L393.373,176L416,198.627L358.627,256z" />
</svg>
